applications/org.gnome.Weather.svg

<svg 
    xmlns="http://www.w3.org/2000/svg" width="48" height="48">
    <defs>
        <filter id="a">
            <feGaussianBlur in="SourceAlpha" stdDeviation=".8"/>
            <feOffset dy=".4"/>
            <feComponentTransfer>
                <feFuncA slope=".3" type="linear"/>
            </feComponentTransfer>
            <feMerge>
                <feMergeNode/>
                <feMergeNode in="SourceGraphic"/>
            </feMerge>
        </filter>
        <clipPath id="b">
            <circle fill="#ffeb3b" cx="-32" cy="-12" r="14"/>
        </clipPath>
    </defs>
    <path fill="#ffeb3b" d="M16 6A14 14 0 0 0 2 20a14 14 0 0 0 4.215 9.994A10 10 0 0 0 6 32a10 10 0 0 0 10 10h22a8 8 0 0 0 8-8 8 8 0 0 0-8-8 8 8 0 0 0-.21.008 10 10 0 0 0-7.925-7.822A14 14 0 0 0 16 6z" filter="url(#a)"/>
    <path fill="#fafafa" d="M-20-14a10 10 0 0 0-8.445 4.666A10 10 0 0 0-32-10 10 10 0 0 0-42 0a10 10 0 0 0 10 10h22a8 8 0 0 0 8-8 8 8 0 0 0-8-8 8 8 0 0 0-.21.008A10 10 0 0 0-20-14z" clip-path="url(#b)" filter="url(#a)" transform="translate(48 32)"/>
    <path fill="#fafafa" d="M28 18a10 10 0 0 0-8.445 4.666A10 10 0 0 0 16 22 10 10 0 0 0 6 32a10 10 0 0 0 10 10h22a8 8 0 0 0 8-8 8 8 0 0 0-8-8 8 8 0 0 0-.21.008A10 10 0 0 0 28 18z"/>
</svg>

<?xml version="1.0" encoding="UTF-8" standalone="no"?>
<!-- Created with Inkscape (http://www.inkscape.org/) -->

<svg
   xmlns:dc="http://purl.org/dc/elements/1.1/"
   xmlns:cc="http://creativecommons.org/ns#"
   xmlns:rdf="http://www.w3.org/1999/02/22-rdf-syntax-ns#"
   xmlns:svg="http://www.w3.org/2000/svg"
   xmlns="http://www.w3.org/2000/svg"
   xmlns:sodipodi="http://sodipodi.sourceforge.net/DTD/sodipodi-0.dtd"
   xmlns:inkscape="http://www.inkscape.org/namespaces/inkscape"
   width="48"
   height="48"
   id="svg4152"
   version="1.1"
   inkscape:version="0.92.1 r"
   viewBox="0 0 48 48"
   sodipodi:docname="org.gnome.Weather.svg">
  <defs
     id="defs4154">
    <filter
       style="color-interpolation-filters:sRGB;"
       inkscape:label="Drop Shadow"
       id="filter4145">
      <feFlood
         flood-opacity="0.298039"
         flood-color="rgb(0,0,0)"
         result="flood"
         id="feFlood4147" />
      <feComposite
         in="flood"
         in2="SourceGraphic"
         operator="in"
         result="composite1"
         id="feComposite4149" />
      <feGaussianBlur
         in="composite1"
         stdDeviation="0.8"
         result="blur"
         id="feGaussianBlur4151" />
      <feOffset
         dx="0"
         dy="0.4"
         result="offset"
         id="feOffset4153" />
      <feComposite
         in="SourceGraphic"
         in2="offset"
         operator="over"
         result="composite2"
         id="feComposite4155" />
    </filter>
    <filter
       style="color-interpolation-filters:sRGB;"
       inkscape:label="Drop Shadow"
       id="filter886">
      <feFlood
         flood-opacity="0.298039"
         flood-color="rgb(0,0,0)"
         result="flood"
         id="feFlood876" />
      <feComposite
         in="flood"
         in2="SourceGraphic"
         operator="in"
         result="composite1"
         id="feComposite878" />
      <feGaussianBlur
         in="composite1"
         stdDeviation="0.8"
         result="blur"
         id="feGaussianBlur880" />
      <feOffset
         dx="0"
         dy="0.4"
         result="offset"
         id="feOffset882" />
      <feComposite
         in="SourceGraphic"
         in2="offset"
         operator="over"
         result="composite2"
         id="feComposite884" />
    </filter>
    <filter
       style="color-interpolation-filters:sRGB;"
       inkscape:label="Drop Shadow"
       id="filter933">
      <feFlood
         flood-opacity="0.298039"
         flood-color="rgb(0,0,0)"
         result="flood"
         id="feFlood923" />
      <feComposite
         in="flood"
         in2="SourceGraphic"
         operator="in"
         result="composite1"
         id="feComposite925" />
      <feGaussianBlur
         in="composite1"
         stdDeviation="0.8"
         result="blur"
         id="feGaussianBlur927" />
      <feOffset
         dx="0"
         dy="0.4"
         result="offset"
         id="feOffset929" />
      <feComposite
         in="SourceGraphic"
         in2="offset"
         operator="over"
         result="composite2"
         id="feComposite931" />
    </filter>
    <clipPath
       clipPathUnits="userSpaceOnUse"
       id="clipPath935">
      <circle
         style="color:#000000;clip-rule:nonzero;display:inline;overflow:visible;visibility:visible;opacity:1;isolation:auto;mix-blend-mode:normal;color-interpolation:sRGB;color-interpolation-filters:linearRGB;solid-color:#000000;solid-opacity:1;fill:#ffeb3b;fill-opacity:1;fill-rule:nonzero;stroke:none;stroke-width:2;stroke-linecap:round;stroke-linejoin:round;stroke-miterlimit:4;stroke-dasharray:none;stroke-dashoffset:0;stroke-opacity:1;paint-order:normal;color-rendering:auto;image-rendering:auto;shape-rendering:auto;text-rendering:auto;enable-background:accumulate"
         id="circle937"
         cx="-30"
         cy="-12"
         r="14" />
    </clipPath>
    <filter
       style="color-interpolation-filters:sRGB;"
       inkscape:label="Drop Shadow"
       id="filter4537">
      <feFlood
         flood-opacity="0.298039"
         flood-color="rgb(0,0,0)"
         result="flood"
         id="feFlood4527" />
      <feComposite
         in="flood"
         in2="SourceGraphic"
         operator="in"
         result="composite1"
         id="feComposite4529" />
      <feGaussianBlur
         in="composite1"
         stdDeviation="0.8"
         result="blur"
         id="feGaussianBlur4531" />
      <feOffset
         dx="0"
         dy="0.4"
         result="offset"
         id="feOffset4533" />
      <feComposite
         in="SourceGraphic"
         in2="offset"
         operator="over"
         result="composite2"
         id="feComposite4535" />
    </filter>
    <filter
       style="color-interpolation-filters:sRGB;"
       inkscape:label="Drop Shadow"
       id="filter4564">
      <feFlood
         flood-opacity="0.298039"
         flood-color="rgb(0,0,0)"
         result="flood"
         id="feFlood4554" />
      <feComposite
         in="flood"
         in2="SourceGraphic"
         operator="in"
         result="composite1"
         id="feComposite4556" />
      <feGaussianBlur
         in="composite1"
         stdDeviation="0.8"
         result="blur"
         id="feGaussianBlur4558" />
      <feOffset
         dx="0"
         dy="0.4"
         result="offset"
         id="feOffset4560" />
      <feComposite
         in="SourceGraphic"
         in2="offset"
         operator="over"
         result="composite2"
         id="feComposite4562" />
    </filter>
    <clipPath
       clipPathUnits="userSpaceOnUse"
       id="clipPath4566">
      <circle
         style="color:#000000;clip-rule:nonzero;display:inline;overflow:visible;visibility:visible;opacity:1;isolation:auto;mix-blend-mode:normal;color-interpolation:sRGB;color-interpolation-filters:linearRGB;solid-color:#000000;solid-opacity:1;fill:#ffeb3b;fill-opacity:1;fill-rule:nonzero;stroke:none;stroke-width:2;stroke-linecap:round;stroke-linejoin:round;stroke-miterlimit:4;stroke-dasharray:none;stroke-dashoffset:0;stroke-opacity:1;paint-order:normal;color-rendering:auto;image-rendering:auto;shape-rendering:auto;text-rendering:auto;enable-background:accumulate"
         id="circle4568"
         cx="-32"
         cy="-12"
         r="14" />
    </clipPath>
  </defs>
  <sodipodi:namedview
     id="base"
     pagecolor="#ededed"
     bordercolor="#000000"
     borderopacity="0.49803922"
     inkscape:pageopacity="0"
     inkscape:pageshadow="2"
     inkscape:zoom="7.848108"
     inkscape:cx="24.359412"
     inkscape:cy="14.596897"
     inkscape:current-layer="layer1"
     showgrid="false"
     inkscape:grid-bbox="true"
     inkscape:document-units="px"
     inkscape:showpageshadow="false"
     borderlayer="true"
     inkscape:window-width="1920"
     inkscape:window-height="1012"
     inkscape:window-x="0"
     inkscape:window-y="32"
     inkscape:window-maximized="1"
     showguides="false">
    <inkscape:grid
       type="xygrid"
       id="grid4700"
       color="#000000"
       opacity="0.0627451"
       empcolor="#000000"
       empopacity="0.1254902"
       empspacing="4"
       spacingx="2"
       spacingy="2" />
  </sodipodi:namedview>
  <metadata
     id="metadata4157">
    <rdf:RDF>
      <cc:Work
         rdf:about="">
        <dc:format>image/svg+xml</dc:format>
        <dc:type
           rdf:resource="http://purl.org/dc/dcmitype/StillImage" />
        <dc:title />
      </cc:Work>
    </rdf:RDF>
  </metadata>
  <g
     id="layer1"
     inkscape:label="Layer 1"
     inkscape:groupmode="layer"
     transform="translate(0,32)">
    <path
       style="color:#000000;clip-rule:nonzero;display:inline;overflow:visible;visibility:visible;opacity:1;isolation:auto;mix-blend-mode:normal;color-interpolation:sRGB;color-interpolation-filters:linearRGB;solid-color:#000000;solid-opacity:1;fill:#ffeb3b;fill-opacity:1;fill-rule:nonzero;stroke:none;stroke-width:2;stroke-linecap:round;stroke-linejoin:round;stroke-miterlimit:4;stroke-dasharray:none;stroke-dashoffset:0;stroke-opacity:1;paint-order:normal;color-rendering:auto;image-rendering:auto;shape-rendering:auto;text-rendering:auto;enable-background:accumulate;filter:url(#filter4537)"
       d="M 16 6 A 14 14 0 0 0 2 20 A 14 14 0 0 0 6.2148438 29.994141 A 10 10 0 0 0 6 32 A 10 10 0 0 0 16 42 L 38 42 A 8 8 0 0 0 46 34 A 8 8 0 0 0 38 26 A 8 8 0 0 0 37.789062 26.007812 A 10 10 0 0 0 29.865234 18.185547 A 14 14 0 0 0 16 6 z "
       transform="translate(0,-32)"
       id="path4506" />
    <path
       inkscape:connector-curvature="0"
       style="color:#000000;clip-rule:nonzero;display:inline;overflow:visible;visibility:visible;opacity:1;isolation:auto;mix-blend-mode:normal;color-interpolation:sRGB;color-interpolation-filters:linearRGB;solid-color:#000000;solid-opacity:1;fill:#fafafa;fill-opacity:1;fill-rule:nonzero;stroke:none;stroke-width:2;stroke-linecap:round;stroke-linejoin:round;stroke-miterlimit:4;stroke-dasharray:none;stroke-dashoffset:0;stroke-opacity:1;paint-order:normal;filter:url(#filter4564);color-rendering:auto;image-rendering:auto;shape-rendering:auto;text-rendering:auto;enable-background:accumulate"
       d="M -20,-14 A 10,10 0 0 0 -28.445312,-9.333984 10,10 0 0 0 -32,-10 10,10 0 0 0 -42,0 10,10 0 0 0 -32,10 h 22 a 8,8 0 0 0 8,-8 8,8 0 0 0 -8,-8 8,8 0 0 0 -0.210938,0.0078 A 10,10 0 0 0 -20,-14 Z"
       id="path825-3-3-5-6"
       clip-path="url(#clipPath4566)"
       transform="translate(48)" />
    <path
       inkscape:connector-curvature="0"
       style="color:#000000;clip-rule:nonzero;display:inline;overflow:visible;visibility:visible;opacity:1;isolation:auto;mix-blend-mode:normal;color-interpolation:sRGB;color-interpolation-filters:linearRGB;solid-color:#000000;solid-opacity:1;fill:#fafafa;fill-opacity:1;fill-rule:nonzero;stroke:none;stroke-width:2;stroke-linecap:round;stroke-linejoin:round;stroke-miterlimit:4;stroke-dasharray:none;stroke-dashoffset:0;stroke-opacity:1;paint-order:normal;color-rendering:auto;image-rendering:auto;shape-rendering:auto;text-rendering:auto;enable-background:accumulate"
       d="M 28,-14 A 10,10 0 0 0 19.554688,-9.333984 10,10 0 0 0 16,-10 10,10 0 0 0 6,0 10,10 0 0 0 16,10 H 38 A 8,8 0 0 0 46,2 8,8 0 0 0 38,-6 8,8 0 0 0 37.789062,-5.9922 10,10 0 0 0 28,-14 Z"
       id="path825-3-3-5-6-7" />
  </g>
</svg>
